Origami/48x48/apps/distributor-logo-lubuntu.svg

<svg width="48" height="48" version="1" xmlns="http://www.w3.org/2000/svg">
 <circle cx="24" cy="25" r="20" style="opacity:.2"/>
 <circle cx="24" cy="24" r="20" style="fill:#0068c8"/>
 <path d="m28.949 9.2793c-0.61-0.02-3.979 0.9707-4.959 2.2207-2.722 0.192-12.854 6.981-19.9627 11.945a20 20 0 0 0 -0.0273 0.555 20 20 0 0 0 0.084 1.684c2.6458-0.966 5.2826-1.801 6.496-1.793 0.29 0 0.509 0.05 0.609 0.16 0.58 0.68-1.8897 3.979-4.4292 7.719-0.2357 0.346-0.4645 0.693-0.6993 1.042a20 20 0 0 0 0.7227 1.321c3.207-3.987 6.6978-8.206 7.7678-8.363 0.06-0.02 0.12-1e-3 0.17 0.019 0.187 0.232-3.058 5.462-6.2972 10.744a20 20 0 0 0 1.3535 1.516c1.4077-1.948 2.8477-3.946 4.2837-5.93 3.82-5.27 7.199-10.198 8.849-10.238 0.05 0 0.101 0 0.151 0.01 4.69 0.027 9.243 10.832 11.972 18.777a20 20 0 0 0 1.416 -1.018c-1.402-8.963-4.32-21.715-9.969-25.49 0.66-0.44 0.709-2.68 0.709-2.68l1.76-2.2007z" style="fill:#ffffff"/>
 <path d="M 24 4 A 20 20 0 0 0 4 24 A 20 20 0 0 0 4.0215 24.582 A 20 20 0 0 1 24 5 A 20 20 0 0 1 43.979 24.418 A 20 20 0 0 0 44 24 A 20 20 0 0 0 24 4 z" style="fill:#ffffff;opacity:.1"/>
</svg>

<svg xmlns="http://www.w3.org/2000/svg" width="48" height="48" version="1">
 <circle style="opacity:0.2" cx="24" cy="25" r="20"/>
 <circle style="fill:#0068c8" cx="24" cy="24" r="20"/>
 <path style="fill:#ffffff" d="M 28.949 9.2793 C 28.339 9.2593 24.97 10.25 23.99 11.5 C 21.268 11.692 11.136 18.481 4.0273 23.445 A 20 20 0 0 0 4 24 A 20 20 0 0 0 4.084 25.684 C 6.7298 24.718 9.3666 23.883 10.58 23.891 C 10.87 23.891 11.089 23.941 11.189 24.051 C 11.769 24.731 9.2993 28.03 6.7598 31.77 C 6.5241 32.116 6.2953 32.463 6.0605 32.812 A 20 20 0 0 0 6.7832 34.133 C 9.9902 30.146 13.481 25.927 14.551 25.77 C 14.611 25.75 14.671 25.769 14.721 25.789 C 14.908 26.021 11.663 31.251 8.4238 36.533 A 20 20 0 0 0 9.7773 38.049 C 11.185 36.101 12.625 34.103 14.061 32.119 C 17.881 26.849 21.26 21.921 22.91 21.881 C 22.96 21.881 23.011 21.881 23.061 21.891 C 27.751 21.918 32.304 32.723 35.033 40.668 A 20 20 0 0 0 36.449 39.65 C 35.047 30.687 32.129 17.935 26.48 14.16 C 27.14 13.72 27.189 11.48 27.189 11.48 L 28.949 9.2793 z"/>
 <path style="opacity:0.1;fill:#ffffff" d="M 24 4 A 20 20 0 0 0 4 24 A 20 20 0 0 0 4.0215 24.582 A 20 20 0 0 1 24 5 A 20 20 0 0 1 43.979 24.418 A 20 20 0 0 0 44 24 A 20 20 0 0 0 24 4 z"/>
</svg>
